icon-themes/breeze_svg/cmd/lc_lineendstyle.svg

<svg viewBox="0 0 24 24" xmlns="http://www.w3.org/2000/svg"><path d="m7 6-3 3 3 3v-2h13v-2h-13zm10 6c-1.301321 0-2.39699.841652-2.8125 2h-10.1875v2h10.1875c.41551 1.158348 1.511179 2 2.8125 2 1.656854 0 3-1.343146 3-3s-1.343146-3-3-3z" fill="#4d4d4d"/></svg>

<svg xmlns="http://www.w3.org/2000/svg" viewBox="0 0 24 24">
 <path 
     style="fill:#4d4d4d" 
     d="M 7 6 L 4 9 L 7 12 L 7 10 L 20 10 L 20 8 L 7 8 L 7 6 z M 17 12 C 15.698679 12 14.60301 12.841652 14.1875 14 L 4 14 L 4 16 L 14.1875 16 C 14.60301 17.158348 15.698679 18 17 18 C 18.656854 18 20 16.656854 20 15 C 20 13.343146 18.656854 12 17 12 z "
     />
 </svg>
